libs/icons/src/svg/pen.svg

<svg width="16" height="16" viewBox="0 0 16 16" fill="none" xmlns="http://www.w3.org/2000/svg">
<g clip-path="url(#clip0_3_3750)">
<path d="M15.14 3.52666L12.4733 0.859993C12.2133 0.599993 11.7933 0.599993 11.5333 0.859993L1.53332 10.86C1.43998 10.9533 1.37998 11.0733 1.35332 11.2L0.68665 14.5333C0.639983 14.7533 0.713317 14.98 0.86665 15.1333C0.98665 15.2667 1.15998 15.3333 1.33332 15.3333C1.37998 15.3333 1.41998 15.3267 1.46665 15.32L4.79998 14.6533C4.92665 14.6267 5.04665 14.5667 5.13998 14.4733L15.14 4.47333C15.4 4.21333 15.4 3.78666 15.14 3.52666ZM4.33998 13.3867L2.18665 13.82L2.61998 11.6667L9.33332 4.93999L11.06 6.66666L4.33998 13.3867ZM12 5.72666L10.2733 3.99999L12 2.27333L13.7266 3.99999L12 5.72666Z" fill="#202327"/>
</g>
<defs>
<clipPath id="clip0_3_3750">
<rect width="16" height="16" fill="white"/>
</clipPath>
</defs>
</svg>

<svg xmlns="http://www.w3.org/2000/svg" viewBox="0 0 16 16" class="sageicon"><path d="M15.14 3.527 12.473.86a.664.664 0 0 0-.94 0l-10 10a.676.676 0 0 0-.18.34l-.666 3.333a.66.66 0 0 0 .18.6c.12.134.293.2.466.2.047 0 .087-.006.134-.013l3.333-.667a.675.675 0 0 0 .34-.18l10-10a.672.672 0 0 0 0-.946Zm-10.8 9.86-2.153.433.433-2.153L9.333 4.94l1.727 1.727-6.72 6.72ZM12 5.727 10.273 4 12 2.273 13.727 4 12 5.727Z"/></svg>
